X:637
T:Doonagore
O:Ireland
M:4/4
L:1/8
Q:1/4=135
K:G
V:1
DG G2 FG Ac |BG G2 AB cA |d2 cA BG G2 |1 Bd cA BG AF :|2
Bd cA G2 Bd || |:g3 ef dd2 |fd ge fd df |g2 ag fd d^c |
de fa g3 f|g ba gf dd c|B2 BG AB cA |d2 cA BG G2 |
|1 Bd cA G2 Bd :|2 Bd cA G4 |
